!!!OTL: IM BOEHMERLAND BEI PRAG
!!!ARE: Europa, Mitteleuropa, Deutschland, Neumark, Lippehne
!!!SCT: E0329
!!!YEM: Copyright 1995, estate of Helmut Schaffrath.
**kern
*ICvox
*Ivox
*M2/4
*k[b-e-]
*B-:
{8f
=1
8.b-
16cc
16dd
16cc
16dd
16cc
=2
4b-
8r}
{16b-
16cc
=3
8dd
8dd
8dd
16cc
16dd
=4
8ee-
16dd
16b-
8cc}
{16a
16b-
=5
16cc
16cc
16cc
16cc
16cc
16cc
16b-
16cc
=6
4dd
8r}
{16b-
16cc
=7
8dd
16dd
16dd
8dd
8ee-
=8
8ff
16ee-
16dd
8cc}
{16cc
16dd
=9
8ee-
16dd
16dd
8cc
16a
16b-
=10
8cc
16a
16g
8f}
{16b-
16dd
=11
8.ff
16b-
8dd
16cc
16a
=12
4b-
8r}
==
!!!AGN: historisches Lied, Siebenjaehriger Krieg (1757)
!!!ONB: ESAC (Essen Associative Code) Database: ERK1
!!!AMT: simple duple
!!!AIN: vox
!!!EED: Helmut Schaffrath
!!!EEV: 1.0
*-
